X: 26338
T: Merch Megan
R: waltz
M: 3/4
K: Gmajor
|:d>c|B2 G2 G2|e4 d2|c2 cB A>G|F2 D2 dc|
B2 G2 G2|e2 d2 B2|c/d/c B2 A2|G4:|
d2|g2 ga ga|f2 fg fg|e2 ef g/f/e|f2 ef d2|
g2 ga bg|f2 fg af|eb ag fe|d3 e d>c|
B2 G2 G2|e2 d3 B|c3 B AG|F2 D2 d>c|
B2 GB GB|e/f/e d2 B2|c2 B/c/B A2|G4||

